X: 1
T: Falkland Beauty
R: jig
B: RSCDS 4-11
Z: 1997 by John Chambers <jc:trillian.mit.edu>
M: 6/8
L: 1/8
K: Bb
d/e/ \
|: "Bb"fge dec | BAB GFE | D2F B2c |1 "F7"d2c c2d/e/ :|2 "Bb"d2B "fine"B2 ||
f \
|: "Bb"b2B d2B | b2B d2B |1 "F7"A2c cdB | A2c c2f :|2 "F7"F2B "Bb"d2B | d2B B2 ||
e \
|: "Bb"d2f "Eb"g2f | "Bb"d2f "Eb"g2f |1 "Eb"g2f e2d | "F7"d2c c3 :|2 "Eb"g2f "F7"g2a | "Bb"b3 "d.C."b2 |]
